X:1
T:Title
%%score { 1 | 2 }
L:1/8
M:6/8
K:G
V:1 treble nm="Grand Piano"
V:2 bass 
V:1
 z3 z2[Q:1/4=81] D | B>BB cBA | G[DF][CE] [B,D]2 [DG] | A>AA G2 A |[M:5/8] B-B- B3 |[M:1/8] D | %6
[M:3/4] B>B Bc BA | G[DF] [CE] [B,D]2 [DG] | [EA]>[Ec] [Ec] [DB]2 [CA] | %9
[M:5/8] [B,G]-[B,G]- [B,G]3 |[M:1/8] [DG] |[M:3/4] A>A B c2 A | B>B c d2 d | ed BG AB | %14
[M:5/8] [FA]-[FA]- [FA]3 |[M:1/8] [Fd] |[M:3/4] d>e d B2 G | GA B [Ec]2 [Ge] | [Gd][GB] GF GA | %19
[M:5/8] [B,DG]-[B,DG]- [B,DG]3 |] %20
V:2
 z3 z2 [G,B,] | [G,D]>[G,D][G,D] [G,E][G,D][^D,F,C] | [E,G,B,][B,,G,][C,G,] [G,,G,]2 [B,,G,] | %3
 [D,F,D]>[D,F,D][D,F,D] [D,E,D]2 [D,F,D] |[M:5/8] [G,D]-[G,D]- [G,D]3 |[M:1/8] [G,B,] | %6
[M:3/4] [G,D]>[G,D] [G,D][G,E] [G,D][^D,F,C] | [E,G,B,][B,,G,] [C,G,] [G,,G,]2 [B,,G,] | %8
 [C,G,]>[A,,G,] [A,,G,] [D,G,]2 [D,F,] |[M:5/8] [G,,G,]-[G,,G,]- [G,,G,]3 |[M:1/8] [B,,G,] | %11
[M:3/4] [D,F,D]>[D,F,D] [D,G,D] [D,A,D]2 [D,F,D] | [G,D]>[G,D] [G,A,D] [G,B,G]2 [G,B,G] | %13
 [G,CG][G,B,G] [G,DG][E,^C] [A,CG][A,CG] |[M:5/8][K:bass] [D,D]-[D,D]- [D,D]3 |[M:1/8] [D,C] | %16
[M:3/4][K:treble] [G,B,G]>[G,CG] [G,B,G] [G,DG]2 [G,B,] | %17
 [G,B,][G,CF] [G,D=F][K:bass] [C,C]2 [C,C] | [D,B,][D,D] [D,B,D][D,A,D] [D,B,D][D,CD] | %19
[M:5/8] [G,,G,]-[G,,G,]- [G,,G,]3 |] %20

